calendar-start-outline.svg

<svg fill="currentColor" viewBox="0 0 24 24"><path d="m13 18-4-4v3H4v-3H2v8h2v-3h5v3zm6-15h-1V1h-2v2H8V1H6v2H5c-1.1 0-2 .9-2 2v7h2V9h14v10h-4.2l-2 2H19c1.1 0 2-.9 2-2V5c0-1.1-.9-2-2-2M5 7V5h14v2z"/></svg>

<svg  viewBox="0 0 24 24" fill="currentColor"><path  d="M13 18L9 14V17H4V14H2V22H4V19H9V22L13 18M19 3H18V1H16V3H8V1H6V3H5C3.9 3 3 3.9 3 5V12H5V9H19V19H14.8L12.8 21H19C20.1 21 21 20.1 21 19V5C21 3.9 20.1 3 19 3M5 7V5H19V7H5Z"/></svg>
